assets/img/main/deal/4.svg

<svg width="354" height="355" viewBox="0 0 354 355" fill="none" xmlns="http://www.w3.org/2000/svg">
<path d="M109.012 175.99C80.7274 147.726 52.6933 119.711 24.6604 91.6955C18.8537 85.8924 18.8332 83.4028 24.5842 77.6494C48.842 53.3816 73.1038 29.118 97.3684 4.85708C103.011 -0.784307 105.921 -0.822622 111.495 4.80603C118.514 11.8941 125.469 19.045 132.342 26.0571C143.347 22.0023 153.719 18.0719 164.167 14.3557C181.152 8.31415 197.495 10.622 213.216 18.7144C227.526 26.0807 241.634 33.8429 256.03 41.0338C260.667 43.3504 265.934 44.407 270.918 46.0416C273.746 37.2326 274.311 36.8302 282.843 36.8296C287.655 36.8292 292.467 36.8295 297.082 36.8295C297.473 36.2843 297.799 36.0399 297.819 35.7731C298.634 24.6119 299.723 23.6137 311.158 23.6137C321.991 23.6136 332.823 23.5794 343.656 23.6261C350.809 23.6569 353.078 26.0153 353.079 33.2018C353.08 60.6996 353.081 88.1973 353.078 115.695C353.077 123.124 350.485 125.717 342.861 125.73C324.862 125.762 306.86 125.935 288.867 125.608C284.202 125.523 281.199 126.959 278.374 130.472C269.776 141.167 258.943 148.399 245.178 150.72C244.527 150.83 243.83 151.173 243.236 151.041C235.232 149.259 230.493 153.982 225.433 159.136C205.711 179.221 185.703 199.025 165.788 218.921C160.513 224.191 157.19 224.195 151.991 218.996C137.743 204.748 123.505 190.493 109.012 175.99ZM205.342 120.084C213.656 131.836 225.801 136.542 239.382 136.481C252.637 136.423 262.229 128.417 269.817 118.135C271.071 116.434 271.807 113.946 271.834 111.81C272.008 97.647 271.924 83.4813 271.924 69.3166C271.924 66.3671 271.924 63.4176 271.924 60.3284C261.358 59.3016 252.116 56.1369 243.31 51.1334C231.912 44.6573 220.177 38.7724 208.546 32.7111C199.895 28.203 190.754 24.4034 180.926 26.0594C172.373 27.5006 164.091 30.6162 155.743 33.165C152.045 34.294 148.477 35.8498 144.18 37.4638C150.081 43.3465 155.749 48.2905 160.552 53.9659C166.325 60.7859 173.541 64.1657 181.968 66.4576C194.112 69.7607 206.015 73.9686 217.973 77.9345C222.335 79.3812 224.709 83.7201 223.454 87.216C221.993 91.2866 217.72 93.2179 213.307 91.8059C209.83 90.6936 206.352 89.588 202.875 88.4756C186.425 83.2122 169.986 77.9162 153.521 72.7009C148.132 70.9939 143.11 72.1577 139.337 76.2246C135.519 80.341 135.003 85.4778 137.294 90.6268C139.4 95.3586 143.552 97.7133 148.252 99.3106C161.621 103.854 175.007 108.352 188.33 113.028C193.912 114.987 199.353 117.351 205.342 120.084ZM191.531 141.05C191.682 138.786 192.081 136.502 191.905 134.264C191.766 132.499 191.362 129.649 190.314 129.241C183.755 126.691 176.982 124.691 170.174 122.475C169.522 124.076 169.094 125.139 168.656 126.198C161.471 143.581 143.943 153.652 125.482 151.006C108.261 148.538 93.106 132.269 92.0004 115.064C90.7843 96.1386 102.628 78.9975 120.424 73.7599C122.068 73.2759 124.094 72.5017 124.955 71.2059C129.537 64.3086 135.725 59.7791 143.745 57.7299C139.114 53.041 134.698 48.5702 130.117 43.9318C113.03 54.5999 95.7466 54.8642 79.7262 44.4355C74.0992 49.5443 68.9744 54.197 63.7023 58.9836C69.24 66.7352 71.9062 75.2694 71.9684 84.3595C72.0315 93.5938 69.2617 102.218 63.6486 110.069C86.3341 132.713 108.798 155.193 131.42 177.512C132.336 178.416 135.135 178.499 136.404 177.792C151.618 169.321 166.647 169.391 181.808 177.938C182.97 178.594 185.529 178.183 186.629 177.281C190.321 174.25 193.525 170.631 197.158 167.519C199.411 165.588 198.968 164.051 198.044 161.555C195.66 155.107 193.876 148.437 191.531 141.05ZM328.471 38.8495C323.346 38.8495 318.221 38.8495 312.977 38.8495C312.977 62.8947 312.977 86.4119 312.977 109.995C321.646 109.995 329.909 109.995 338.315 109.995C338.315 86.1925 338.315 62.6651 338.315 38.8494C335.096 38.8494 332.275 38.8494 328.471 38.8495ZM149.31 129.835C151.713 125.987 154.115 122.139 156.936 117.622C140.346 112.946 125.574 107.45 121.442 89.2773C111.472 93.3306 105.336 103.966 106.753 114.112C108.15 124.121 113.215 131.342 122.786 134.992C132.334 138.632 140.969 136.759 149.31 129.835ZM286.27 102.414C286.27 104.87 286.27 107.325 286.27 110.017C290.416 110.017 293.987 110.017 297.759 110.017C297.759 90.344 297.759 70.9348 297.759 51.3208C293.938 51.3208 290.369 51.3208 286.27 51.3208C286.27 68.1959 286.27 84.8167 286.27 102.414ZM158.538 186.152C153.826 187.132 149.114 188.112 144.429 189.087C150.035 194.782 154.851 199.676 159.052 203.943C163.694 199.547 168.566 194.934 174.445 189.366C168.918 188.184 164.17 187.168 158.538 186.152ZM92.8255 34.8305C101.885 38.4831 110.617 38.0056 118.691 33.6398C113.708 28.2965 109.015 23.2634 104.037 17.926C99.7481 22.3267 95.6273 26.6497 91.3912 30.8567C89.6283 32.6075 89.3054 33.7954 92.8255 34.8305ZM46.5961 92.9048C48.7756 95.0111 50.955 97.1173 53.37 99.4512C58.1857 89.0899 58.4205 79.5619 53.4315 70.0107C48.3658 75.1579 43.5814 80.0193 38.5279 85.154C40.844 87.3648 43.4762 89.8774 46.5961 92.9048ZM206.368 144.328C207.478 147.347 208.588 150.367 209.74 153.5C212.202 151.064 214.193 149.095 216.338 146.973C213.639 145.381 211.166 143.797 208.554 142.495C208.086 142.262 207.038 143.191 206.368 144.328Z" fill="#0769CD"/>
<path d="M46.695 341.175C33.9021 341.175 21.574 341.196 9.24591 341.166C2.33019 341.15 0.260257 339.093 0.258258 332.321C0.250026 304.5 0.249583 276.678 0.25854 248.857C0.260752 241.987 2.26238 239.996 9.1343 239.993C28.1263 239.985 47.1188 239.919 66.1097 240.058C69.3808 240.082 71.4774 239.157 73.5704 236.514C83.0312 224.569 94.5864 215.611 110.356 214.245C126.101 212.882 140.398 217.142 152.009 228.076C156.617 232.416 161.354 235.553 167.421 237.425C180.251 241.383 192.813 246.208 205.633 250.203C216.946 253.728 226.044 259.601 230.881 271.238C244.794 267.345 258.415 263.285 272.179 259.782C279.351 257.957 286.752 256.213 294.087 256.045C304.167 255.815 311.585 261.3 316.323 270.214C321.237 279.46 321.258 288.521 315.452 297.483C310.84 304.602 304.446 309.322 296.568 312.159C260.682 325.083 224.853 338.169 188.868 350.811C174.063 356.012 159.104 355.381 144.917 348.285C129.485 340.566 114.368 332.213 98.9217 324.524C93.9834 322.065 88.4312 320.84 82.5615 318.848C81.3338 327.22 76.4778 328.76 69.8969 328.163C65.3036 327.746 60.6419 328.082 56.0903 328.082C54.444 339.882 53.8269 340.758 46.695 341.175ZM113.639 228.943C101.266 229.182 92.5042 236.002 85.1724 245.016C83.4294 247.159 82.0504 250.296 82.0008 253.003C81.7077 268.989 81.9016 284.984 81.8139 300.975C81.7987 303.759 82.4706 304.79 85.5464 305.426C91.9708 306.753 98.5894 308.226 104.433 311.067C119.792 318.536 134.692 326.939 149.941 334.641C160.79 340.12 172.366 341.016 183.805 337.004C213.355 326.642 242.771 315.896 272.228 305.27C280.024 302.458 287.905 299.827 295.514 296.568C303.035 293.347 306.533 285.795 304.271 279.223C301.706 271.772 296.092 268.76 287.149 271.059C269.363 275.631 251.676 280.593 233.995 285.559C232.71 285.92 231.242 287.424 230.802 288.717C225.76 303.547 209.143 311.552 193.522 305.69C181.435 301.155 168.883 297.866 156.555 293.966C149.431 291.712 142.244 289.605 135.267 286.953C128.757 284.479 127.759 278.066 133.386 274.337C135.301 273.068 138.822 273.128 141.22 273.858C160.11 279.605 178.928 285.593 197.722 291.648C209.416 295.416 218.239 289.697 217.191 278.581C216.58 272.1 212.253 268.139 206.464 266.117C190.498 260.543 174.393 255.363 158.434 249.768C154.617 248.43 150.167 246.922 147.71 244.041C138.885 233.694 128.031 228.685 113.639 228.943ZM14.9427 304.5C14.9427 311.781 14.9427 319.061 14.9427 326.54C23.8478 326.54 32.2371 326.54 40.7005 326.54C40.7005 302.385 40.7005 278.522 40.7005 254.682C31.958 254.682 23.5774 254.682 14.9427 254.682C14.9427 271.213 14.9427 287.357 14.9427 304.5ZM55.5794 301.488C55.5794 305.41 55.5794 309.331 55.5794 313.29C59.838 313.29 63.3602 313.29 66.824 313.29C66.824 293.493 66.824 274.116 66.824 254.726C62.9723 254.726 59.4551 254.726 55.5791 254.726C55.5791 270.269 55.5791 285.38 55.5794 301.488Z" fill="#0769CD"/>
<path d="M240.252 100.064C233.831 97.0695 232.006 92.8527 235.087 88.9708C237.366 86.0983 240.362 84.6849 243.831 86.1522C246.946 87.4699 248.861 90.1623 248.15 93.7098C247.367 97.6185 245.116 100.269 240.252 100.064Z" fill="#0769CD"/>
<path d="M107.795 277.411C104.044 273.529 104.434 270.23 108.037 266.902C111.009 264.156 113.921 264.194 116.931 266.571C120.056 269.039 120.867 273.339 118.603 276.314C115.645 280.203 111.953 280.051 107.795 277.411Z" fill="#0769CD"/>
</svg>

<svg width="354" height="355" viewBox="0 0 354 355" fill="none" xmlns="http://www.w3.org/2000/svg"><path d="M109.012 175.99A1749870.3 1749870.3 0 0124.66 91.695c-5.806-5.803-5.827-8.292-.076-14.046 24.258-24.267 48.52-48.531 72.784-72.792 5.643-5.641 8.553-5.68 14.127-.051 7.019 7.088 13.974 14.239 20.847 21.251 11.005-4.055 21.377-7.985 31.825-11.701 16.985-6.042 33.328-3.734 49.049 4.358 14.31 7.367 28.418 15.129 42.814 22.32 4.637 2.316 9.904 3.373 14.888 5.008 2.828-8.81 3.393-9.212 11.925-9.212h14.239c.391-.546.717-.79.737-1.057.815-11.161 1.904-12.16 13.339-12.16 10.833 0 21.665-.034 32.498.013 7.153.03 9.422 2.39 9.423 9.576.001 27.498.002 54.995-.001 82.493-.001 7.429-2.593 10.022-10.217 10.035-17.999.032-36.001.205-53.994-.122-4.665-.085-7.668 1.351-10.493 4.864-8.598 10.695-19.431 17.927-33.196 20.248-.651.11-1.348.453-1.942.321-8.004-1.782-12.743 2.941-17.803 8.095-19.722 20.085-39.73 39.889-59.645 59.785-5.275 5.27-8.598 5.274-13.797.075-14.248-14.248-28.486-28.503-42.979-43.006zm96.33-55.906c8.314 11.752 20.459 16.458 34.04 16.397 13.255-.058 22.847-8.064 30.435-18.346 1.254-1.701 1.99-4.189 2.017-6.325.174-14.163.09-28.329.09-42.493v-8.989c-10.566-1.026-19.808-4.191-28.614-9.195-11.398-6.476-23.133-12.36-34.764-18.422-8.651-4.508-17.792-8.308-27.62-6.652-8.553 1.442-16.835 4.557-25.183 7.106-3.698 1.129-7.266 2.685-11.563 4.299 5.901 5.883 11.569 10.827 16.372 16.502 5.773 6.82 12.989 10.2 21.416 12.492 12.144 3.303 24.047 7.51 36.005 11.477 4.362 1.446 6.736 5.785 5.481 9.281-1.461 4.07-5.734 6.002-10.147 4.59-3.477-1.112-6.955-2.218-10.432-3.33-16.45-5.264-32.889-10.56-49.354-15.775-5.389-1.707-10.411-.543-14.184 3.524-3.818 4.116-4.334 9.253-2.043 14.402 2.106 4.732 6.258 7.086 10.958 8.684 13.369 4.543 26.755 9.041 40.078 13.717 5.582 1.959 11.023 4.323 17.012 7.056zm-13.811 20.966c.151-2.264.55-4.548.374-6.786-.139-1.765-.543-4.615-1.591-5.023-6.559-2.55-13.332-4.55-20.14-6.766-.652 1.601-1.08 2.664-1.518 3.723-7.185 17.383-24.713 27.454-43.174 24.808-17.221-2.468-32.376-18.737-33.482-35.942-1.216-18.925 10.628-36.066 28.424-41.304 1.644-.484 3.67-1.258 4.531-2.554 4.582-6.897 10.77-11.427 18.79-13.476l-13.628-13.798c-17.087 10.668-34.37 10.932-50.39.503L63.701 58.984c5.538 7.751 8.204 16.285 8.266 25.375.063 9.235-2.706 17.859-8.32 25.71 22.686 22.644 45.15 45.124 67.772 67.443.916.904 3.715.987 4.984.28 15.214-8.471 30.243-8.401 45.404.146 1.162.656 3.721.245 4.821-.657 3.692-3.031 6.896-6.65 10.529-9.762 2.253-1.931 1.81-3.468.886-5.964-2.384-6.448-4.168-13.118-6.513-20.505zm136.94-102.2h-15.494v71.145h25.338V38.849h-9.844zM149.31 129.834l7.626-12.213c-16.59-4.676-31.362-10.172-35.494-28.345-9.97 4.054-16.106 14.689-14.689 24.835 1.397 10.009 6.462 17.23 16.033 20.88 9.548 3.64 18.183 1.767 26.524-5.157zm136.96-27.421v7.603h11.489V51.321H286.27v51.093zm-127.732 83.738l-14.109 2.935 14.623 14.856 15.393-14.577c-5.527-1.182-10.275-2.198-15.907-3.214zM92.825 34.831c9.06 3.652 17.792 3.175 25.866-1.191l-14.654-15.714c-4.289 4.4-8.41 8.724-12.646 12.93-1.763 1.752-2.086 2.94 1.434 3.974zM46.597 92.904l6.774 6.546c4.816-10.361 5.05-19.89.062-29.44L38.528 85.154a1286.8 1286.8 0 018.068 7.75zm159.772 51.423l3.372 9.172 6.598-6.527c-2.699-1.592-5.172-3.176-7.784-4.478-.468-.233-1.516.696-2.186 1.833z" fill="#0769CD"/><path d="M46.695 341.175c-12.793 0-25.121.021-37.45-.009-6.915-.016-8.985-2.073-8.987-8.845-.008-27.821-.008-55.643 0-83.464.003-6.87 2.004-8.861 8.876-8.864 18.992-.008 37.985-.074 56.976.065 3.27.024 5.367-.901 7.46-3.544 9.461-11.945 21.016-20.903 36.786-22.269 15.745-1.363 30.042 2.897 41.653 13.831 4.608 4.34 9.345 7.477 15.412 9.349 12.83 3.958 25.392 8.783 38.212 12.778 11.313 3.525 20.411 9.398 25.248 21.035 13.913-3.893 27.534-7.953 41.298-11.456 7.172-1.825 14.573-3.569 21.908-3.737 10.08-.23 17.498 5.255 22.236 14.169 4.914 9.246 4.935 18.307-.871 27.269-4.612 7.119-11.006 11.839-18.884 14.676-35.886 12.924-71.715 26.01-107.7 38.652-14.805 5.201-29.764 4.57-43.951-2.526-15.432-7.719-30.549-16.072-45.995-23.761-4.939-2.459-10.49-3.684-16.36-5.676-1.228 8.372-6.084 9.912-12.665 9.315-4.593-.417-9.255-.081-13.807-.081-1.646 11.8-2.263 12.676-9.395 13.093zm66.944-112.232c-12.373.239-21.135 7.059-28.467 16.073-1.743 2.143-3.122 5.28-3.171 7.987-.293 15.986-.1 31.981-.187 47.972-.015 2.784.657 3.815 3.732 4.451 6.425 1.327 13.043 2.8 18.887 5.641 15.359 7.469 30.259 15.872 45.508 23.574 10.849 5.479 22.425 6.375 33.864 2.363 29.55-10.362 58.966-21.108 88.423-31.734 7.796-2.812 15.677-5.443 23.286-8.702 7.521-3.221 11.019-10.773 8.757-17.345-2.565-7.451-8.179-10.463-17.122-8.164-17.786 4.572-35.473 9.534-53.154 14.5-1.285.361-2.753 1.865-3.193 3.158-5.042 14.83-21.659 22.835-37.28 16.973-12.087-4.535-24.639-7.824-36.967-11.724-7.124-2.254-14.311-4.361-21.288-7.013-6.51-2.474-7.508-8.887-1.881-12.616 1.915-1.269 5.436-1.209 7.834-.479 18.89 5.747 37.708 11.735 56.502 17.79 11.694 3.768 20.517-1.951 19.469-13.067-.611-6.481-4.938-10.442-10.727-12.464-15.966-5.574-32.071-10.754-48.03-16.349-3.817-1.338-8.267-2.846-10.724-5.727-8.825-10.347-19.679-15.356-34.071-15.098zM14.943 304.5v22.04H40.7v-71.858H14.943V304.5zm40.636-3.012v11.802h11.245v-58.564H55.579v46.762zm184.673-201.424c-6.421-2.994-8.246-7.211-5.165-11.093 2.279-2.873 5.275-4.286 8.744-2.819 3.115 1.318 5.03 4.01 4.319 7.558-.783 3.909-3.034 6.559-7.898 6.354z" fill="#0769CD"/><path d="M107.795 277.411c-3.751-3.882-3.361-7.181.242-10.509 2.972-2.746 5.884-2.708 8.894-.331 3.125 2.468 3.936 6.768 1.672 9.743-2.958 3.889-6.65 3.737-10.808 1.097z" fill="#0769CD"/></svg>
